build/communication/TenchatSolid.svg

<svg xmlns="http://www.w3.org/2000/svg" fill="none" viewBox="0 0 24 24" focusable="false"><path d="M0 0H24V24H0z"/><path fill="#74767B" fill-rule="evenodd" d="M18.0418 4.77958C14.0831 3.74014 9.91693 3.74014 5.9582 4.77958C4.62932 5.12842 3.61437 6.19967 3.35055 7.53178C2.88315 9.89252 2.88315 12.3206 3.35055 14.6813C3.6143 16.0134 4.62925 17.0846 5.9582 17.4338C8.3523 18.0625 10.8321 18.3136 13.3056 18.1775C13.6267 18.1599 13.9428 18.2645 14.1885 18.4692L17.104 20.8993C17.1574 20.9439 17.2325 20.9537 17.2959 20.9247C17.3593 20.8956 17.4001 20.8326 17.4001 20.7636L17.4001 17.9417C17.4001 17.7387 17.5408 17.5604 17.7401 17.511C17.8409 17.4859 17.9414 17.4602 18.0418 17.4338C19.3707 17.0846 20.3857 16.0134 20.6494 14.6813C21.1169 12.3206 21.1169 9.89252 20.6494 7.53178C20.3856 6.19967 19.3707 5.12842 18.0418 4.77958ZM15.75 7.14622C16.0208 7.14622 16.2404 7.36293 16.2404 7.63025L16.2404 9.32435C16.2404 9.59171 16.0208 9.80839 15.75 9.80839L14.0336 9.80839C13.7628 9.80839 13.5432 10.0251 13.5432 10.2924L13.5432 14.8907C13.5432 15.1581 13.3237 15.3748 13.0528 15.3748L11.0913 15.3748C10.8205 15.3748 10.6009 15.1581 10.6009 14.8907L10.6009 10.2924C10.6009 10.0251 10.3814 9.80839 10.1106 9.80839L8.39423 9.80839C8.12339 9.80839 7.90384 9.59171 7.90384 9.32435L7.90384 7.63025C7.90384 7.36293 8.12339 7.14622 8.39423 7.14622L15.75 7.14622Z"/></svg>

<svg xmlns="http://www.w3.org/2000/svg" fill="none" viewBox="0 0 24 24" focusable="false"><path fill="none" d="M0 0h24v24H0z"/><path fill="#74767B" fill-rule="evenodd" d="M18.04 4.77a24.04 24.04 0 0 0-12.09 0 3.56 3.56 0 0 0-2.6 2.76c-.47 2.36-.47 4.79 0 7.15.26 1.33 1.27 2.4 2.6 2.75 2.4.63 4.88.88 7.35.74.32-.02.64.09.88.29l2.92 2.43c.05.05.13.06.19.03s.11-.09.11-.16v-2.82c0-.21.14-.38.34-.43.1-.03.2-.05.3-.08a3.56 3.56 0 0 0 2.6-2.75c.47-2.36.47-4.79 0-7.15a3.56 3.56 0 0 0-2.6-2.76m-2.29 2.37c.27 0 .49.22.49.49v1.69c0 .27-.22.48-.49.48h-1.72a.49.49 0 0 0-.49.49v4.6c0 .26-.22.48-.49.48h-1.96c-.27 0-.49-.22-.49-.48v-4.6a.49.49 0 0 0-.49-.49H8.39c-.27 0-.49-.21-.49-.48V7.63c0-.27.22-.49.49-.49z"/></svg>
